X: 75
T: No_166_I_Met_a_Mexican.krn
N: Derived from No_166_I_Met_a_Mexican.krn
%%abc-version 2.0
%%abcx-abcm2ps-target-version 5.9.1 (29 Sep 2008)
%%abc-creator hum2abc beta
%%abcx-conversion-date 2019/03/15 08:37:56
%%humdrum-veritas 573349150
%%humdrum-veritas-data 3721393327
%%linebreak <none>
%%barnumbers 0
L: 1/8
M: 3/8
K: B clef=bass
F,F, [I:setbarnb 1]| 
[M:3/4]CCC2C2 | 
C4DC | 
B,G, (G,3/D,/)D,2 ||  
[M:2/4]D,2z3/ G,/ | 
G,2G,G, | 
B,B, B,B, | 
G,2G,3/G,/ ||  
[M:7/8]G,D,D,2B,, z G, ||  
[M:2/4]G,2G,G, | 
B,B, B,B, | 
G,2G,3/G,/ ||  
[M:7/8]F,D,D,2B,, z D, | 
(D,2F,)F,2z2 |]  



